X:430
T: Johnny's Welcome to Heaven
C: BB
R: reel
Q: 1/8=350
M: 4/4
L: 1/8
K: G
A|"G"BAGA BcdB|"Am"cABG "Em"EB,DE|"G"G2 dG eGdG|"Em"gedB "D7"AcBA|
"G"BAGA BcdB|"Am"cABG "Em"EB,DE|"G"GABd gdBc|"D"dBcA "G"G3 :|
B|"G"dg (3gfg "Am"eafa|"G"gdBd "Em"eB (3BAB|"Em"eBBA "G"GABd|"Em"egfg e3 B|
"G"dg (3gfg "Am"eafa|"G"gdBd "Em"edBA|"G"GABd gdBc|"D7"dBcA "G"G3 :|
%%%%%%%%%%%%%%%%%%%%%%%%%%%%%%%%%%%%%%%%%%%
